src/assets/img/whatsapp.svg

<svg width="25" height="25" viewBox="0 0 25 25" fill="none" xmlns="http://www.w3.org/2000/svg">
<path d="M0.104195 12.3874C0.103588 14.5704 0.676559 16.7019 1.76605 18.5807L0 25L6.59888 23.2775C8.42405 24.2666 10.469 24.7849 12.5471 24.7851H12.5526C19.4127 24.7851 24.9971 19.2278 25 12.3971C25.0013 9.08719 23.7077 5.97474 21.3573 3.6331C19.0074 1.29167 15.882 0.0015106 12.552 0C5.69107 0 0.107129 5.55701 0.104296 12.3874" fill="url(#paint0_linear_6025_25421)"/>
<path d="M9.33162 7.01893C9.09025 6.48488 8.83624 6.4741 8.60671 6.46474C8.41875 6.45668 8.20389 6.45729 7.98923 6.45729C7.77436 6.45729 7.42526 6.53775 7.13017 6.8585C6.83479 7.17956 6.00244 7.9554 6.00244 9.53338C6.00244 11.1114 7.15698 12.6365 7.31793 12.8507C7.47908 13.0645 9.54679 16.4063 12.8215 17.692C15.5432 18.7604 16.097 18.5479 16.6877 18.4943C17.2785 18.4409 18.5939 17.7186 18.8623 16.9697C19.1309 16.2208 19.1309 15.5789 19.0504 15.4448C18.9699 15.3111 18.755 15.2309 18.4328 15.0705C18.1106 14.9102 16.5265 14.1342 16.2312 14.0271C15.9359 13.9202 15.7211 13.8668 15.5062 14.188C15.2914 14.5086 14.6744 15.2309 14.4863 15.4448C14.2985 15.6592 14.1104 15.6859 13.7883 15.5254C13.4659 15.3645 12.4283 15.0262 11.1973 13.9337C10.2395 13.0835 9.59292 12.0336 9.40496 11.7125C9.21701 11.3918 9.38483 11.218 9.54638 11.0582C9.69114 10.9145 9.86868 10.6837 10.0299 10.4964C10.1906 10.3091 10.2442 10.1755 10.3516 9.96159C10.4592 9.74748 10.4053 9.56017 10.3249 9.39974C10.2442 9.23932 9.61811 7.65308 9.33162 7.01893Z" fill="white"/>
<defs>
<linearGradient id="paint0_linear_6025_25421" x1="1250" y1="2500" x2="1250" y2="0" gradientUnits="userSpaceOnUse">
<stop stop-color="#1FAF38"/>
<stop offset="1" stop-color="#60D669"/>
</linearGradient>
</defs>
</svg>

<svg xmlns="http://www.w3.org/2000/svg" width="25" height="25" fill="none"><path fill="url(#a)" d="M.104 12.387c0 2.183.573 4.315 1.662 6.194L0 25l6.599-1.723c1.825.99 3.87 1.508 5.948 1.508h.006c6.86 0 12.444-5.557 12.447-12.388a12.283 12.283 0 0 0-3.643-8.764A12.398 12.398 0 0 0 12.552 0C5.692 0 .107 5.557.104 12.387"/><path fill="#fff" d="M9.332 7.019c-.242-.534-.496-.545-.725-.554-.188-.008-.403-.008-.618-.008-.215 0-.564.08-.859.402-.295.32-1.128 1.096-1.128 2.674 0 1.578 1.155 3.104 1.316 3.318.161.213 2.229 3.555 5.504 4.841 2.721 1.068 3.275.856 3.866.802.59-.053 1.906-.775 2.174-1.524.269-.75.269-1.391.188-1.525-.08-.134-.295-.214-.617-.375-.322-.16-1.907-.936-2.202-1.043-.295-.107-.51-.16-.725.161-.215.32-.832 1.043-1.02 1.257-.188.214-.376.24-.698.08-.322-.16-1.36-.499-2.59-1.591-.959-.85-1.605-1.9-1.793-2.221-.188-.321-.02-.495.141-.655.145-.143.323-.374.484-.562.16-.187.214-.32.322-.534.107-.215.053-.402-.027-.562-.08-.16-.707-1.747-.993-2.381Z"/><defs><linearGradient id="a" x1="1250" x2="1250" y1="2500" y2="0" gradientUnits="userSpaceOnUse"><stop stop-color="#1FAF38"/><stop offset="1" stop-color="#60D669"/></linearGradient></defs></svg>
